assets/tecnologias/python.svg

<svg viewBox="0 0 32 32" xmlns="http://www.w3.org/2000/svg" xmlns:xlink="http://www.w3.org/1999/xlink"><linearGradient id="a" gradientTransform="matrix(189.38 0 0 189.81 25243.061 38519.17)" gradientUnits="userSpaceOnUse" x1="-133.268" x2="-133.198" y1="-202.91" y2="-202.84"><stop offset="0" stop-color="#387eb8"/><stop offset="1" stop-color="#366994"/></linearGradient><linearGradient id="b" gradientTransform="matrix(189.38 0 0 189.81 25309.061 38583.42)" gradientUnits="userSpaceOnUse" x1="-133.575" x2="-133.495" y1="-203.203" y2="-203.133"><stop offset="0" stop-color="#ffe052"/><stop offset="1" stop-color="#ffc331"/></linearGradient><path d="m15.885 2.1c-7.1 0-6.651 3.07-6.651 3.07v3.19h6.752v1h-9.441s-4.545-.56-4.545 6.645 4.013 6.912 4.013 6.912h2.317v-3.361s-.13-4.013 3.9-4.013h6.762s3.772.06 3.772-3.652v-6.091s.572-3.712-6.842-3.712zm-3.732 2.137a1.214 1.214 0 1 1 -1.183 1.244v-.02a1.214 1.214 0 0 1 1.214-1.214z" fill="url(#a)"/><path d="m16.085 29.91c7.1 0 6.651-3.08 6.651-3.08v-3.18h-6.751v-1h9.47s4.545.508 4.545-6.655-4.013-6.912-4.013-6.912h-2.347v3.317s.13 4.013-3.9 4.013h-6.765s-3.775-.057-3.775 3.655v6.132s-.572 3.712 6.842 3.712h.04zm3.732-2.147a1.214 1.214 0 1 1 1.183-1.244v.03a1.214 1.214 0 0 1 -1.214 1.214h.03z" fill="url(#b)"/></svg>

<svg xmlns="http://www.w3.org/2000/svg" xmlns:xlink="http://www.w3.org/1999/xlink" viewBox="0 0 32 32"><defs><linearGradient id="a" x1="-133.268" y1="-202.91" x2="-133.198" y2="-202.84" gradientTransform="translate(25243.061 38519.17) scale(189.38 189.81)" gradientUnits="userSpaceOnUse"><stop offset="0" stop-color="#387eb8"/><stop offset="1" stop-color="#366994"/></linearGradient><linearGradient id="b" x1="-133.575" y1="-203.203" x2="-133.495" y2="-203.133" gradientTransform="translate(25309.061 38583.42) scale(189.38 189.81)" gradientUnits="userSpaceOnUse"><stop offset="0" stop-color="#ffe052"/><stop offset="1" stop-color="#ffc331"/></linearGradient></defs><title>file_type_python</title><path d="M15.885,2.1c-7.1,0-6.651,3.07-6.651,3.07V8.36h6.752v1H6.545S2,8.8,2,16.005s4.013,6.912,4.013,6.912H8.33V19.556s-.13-4.013,3.9-4.013h6.762s3.772.06,3.772-3.652V5.8s.572-3.712-6.842-3.712h0ZM12.153,4.237a1.214,1.214,0,1,1-1.183,1.244v-.02a1.214,1.214,0,0,1,1.214-1.214h0Z" style="fill:url(#a)"/><path d="M16.085,29.91c7.1,0,6.651-3.08,6.651-3.08V23.65H15.985v-1h9.47S30,23.158,30,15.995s-4.013-6.912-4.013-6.912H23.64V12.4s.13,4.013-3.9,4.013H12.975S9.2,16.356,9.2,20.068V26.2s-.572,3.712,6.842,3.712h.04Zm3.732-2.147A1.214,1.214,0,1,1,21,26.519v.03a1.214,1.214,0,0,1-1.214,1.214h.03Z" style="fill:url(#b)"/></svg>
